X: 40694
T: Tornado, The
R: reel
M: 4/4
K: Amajor
|:cBAc BAGB|eaa2 f2fg|agaf ecAc|BAGA BdcB|
cBAc BAFE|eaa2 f2fg|agaf ecAc|1 BAGB A2ed:|2 BAGB A4||
|:{g}a2A2 {g}a2A2|agaf ecBA|BF2F F3A|GABc defg|
{g}a2A2 {g}a2A2|agaf ecBA|BF2F F2Ac|1 BAGB A4:|2 BAGB A2ed||

